X: 38041
T: Robert E. Lyon
C: Andrew Lyon
R:
B: RSCDS 38-4
Z: 1997 by John Chambers <jc:trillian.mit.edu>
M: 4/4
L: 1/8
%--------------------
K: D
A2 \
| "D"D2FG A3d | "G"B2B2 "D"A4 | "G"Bcd2 "D"A2F2 | "Em"F2E2 "A7"AGFE |
| "D"D2FG A2Ad | "G"B2B2 "D"A4 | "G"Bcd2 "A7"cde2 | "D"f2"G"d2 "D"d2z2 ||
|| "D"fedf "A"e2A2 | "Bm"dcBd "F#m"A4 | "G"BcdB "D"A2F2 | "Em"GFED "A7"EGFE |
| "D"DEFG A2Ad | "G"B2B2 "D"A4 | "G"BcdB "A7"cdeg | "D"f2"G"d2 "D"d2z2 ||
%%center Book38/38041-Robert_E_Lyon-1.abc

%%sep 1 1 500
%%sep 1 1 500

